assets/img/braze_icons/sunrise.svg

<svg fill="none" height="24" viewBox="0 0 24 24" width="24" xmlns="http://www.w3.org/2000/svg"><g fill="#801ed7"><path d="m11.2929 1.29289c.3905-.390521 1.0237-.390521 1.4142 0l4 4c.3905.39053.3905 1.02369 0 1.41422-.3905.39052-1.0237.39052-1.4142 0l-2.2929-2.2929v4.58579c0 .55228-.4477 1-1 1s-1-.44772-1-1v-4.58579l-2.29289 2.2929c-.39053.39052-1.02369.39052-1.41422 0-.39052-.39053-.39052-1.02369 0-1.41422z"/><path d="m2 17c-.55228 0-1 .4477-1 1s.44772 1 1 1h2c.55228 0 1-.4477 1-1s-.44772-1-1-1z"/><path d="m4.1928 10.1928c.39052-.39053 1.02369-.39053 1.41421 0l1.41421 1.4142c.39053.3905.39053 1.0237 0 1.4142-.39052.3905-1.02369.3905-1.41421 0l-1.41421-1.4142c-.39053-.3905-.39053-1.0237 0-1.4142z"/><path d="m19.8071 11.607c.3905-.3905.3905-1.0237 0-1.4142-.3905-.39053-1.0237-.39053-1.4142 0l-1.4142 1.4142c-.3905.3905-.3905 1.0237 0 1.4142s1.0237.3905 1.4142 0z"/><path d="m19 18c0-.5523.4477-1 1-1h2c.5523 0 1 .4477 1 1s-.4477 1-1 1h-2c-.5523 0-1-.4477-1-1z"/><path d="m6 18c0-3.3137 2.68629-6 6-6 3.3137 0 6 2.6863 6 6 0 .5523-.4477 1-1 1h-10c-.55228 0-1-.4477-1-1z"/><path d="m2 21c-.55228 0-1 .4477-1 1s.44772 1 1 1h20c.5523 0 1-.4477 1-1s-.4477-1-1-1z"/></g></svg>

<svg width="24" height="24" viewBox="0 0 24 24" fill="none" xmlns="http://www.w3.org/2000/svg">
<path d="M11.2929 1.29289C11.6834 0.902369 12.3166 0.902369 12.7071 1.29289L16.7071 5.29289C17.0976 5.68342 17.0976 6.31658 16.7071 6.70711C16.3166 7.09763 15.6834 7.09763 15.2929 6.70711L13 4.41421V9C13 9.55228 12.5523 10 12 10C11.4477 10 11 9.55228 11 9V4.41421L8.70711 6.70711C8.31658 7.09763 7.68342 7.09763 7.29289 6.70711C6.90237 6.31658 6.90237 5.68342 7.29289 5.29289L11.2929 1.29289Z" fill="#801ED7"/>
<path d="M2 17C1.44772 17 1 17.4477 1 18C1 18.5523 1.44772 19 2 19H4C4.55228 19 5 18.5523 5 18C5 17.4477 4.55228 17 4 17H2Z" fill="#801ED7"/>
<path d="M4.1928 10.1928C4.58332 9.80227 5.21649 9.80227 5.60701 10.1928L7.02122 11.607C7.41175 11.9975 7.41175 12.6307 7.02122 13.0212C6.6307 13.4117 5.99753 13.4117 5.60701 13.0212L4.1928 11.607C3.80227 11.2165 3.80227 10.5833 4.1928 10.1928Z" fill="#801ED7"/>
<path d="M19.8071 11.607C20.1976 11.2165 20.1976 10.5833 19.8071 10.1928C19.4166 9.80227 18.7834 9.80227 18.3929 10.1928L16.9787 11.607C16.5882 11.9975 16.5882 12.6307 16.9787 13.0212C17.3692 13.4117 18.0024 13.4117 18.3929 13.0212L19.8071 11.607Z" fill="#801ED7"/>
<path d="M19 18C19 17.4477 19.4477 17 20 17H22C22.5523 17 23 17.4477 23 18C23 18.5523 22.5523 19 22 19H20C19.4477 19 19 18.5523 19 18Z" fill="#801ED7"/>
<path d="M6 18C6 14.6863 8.68629 12 12 12C15.3137 12 18 14.6863 18 18C18 18.5523 17.5523 19 17 19H7C6.44772 19 6 18.5523 6 18Z" fill="#801ED7"/>
<path d="M2 21C1.44772 21 1 21.4477 1 22C1 22.5523 1.44772 23 2 23H22C22.5523 23 23 22.5523 23 22C23 21.4477 22.5523 21 22 21H2Z" fill="#801ED7"/>
</svg>
